X:1
T: Miss Jane Campbell of Monzies's Strathsspey
C:R. Mackintosh
R:Strathspey
Q: 128
K:G
M:4/4
L:1/16
|:GGG2 BG3 AG3 BG3|D3G BG3 B3c d4|eg3 dg3 cg3 Bg3|Ae3 EA3 F4 ED3|
DG3 BG3 AG3 BG3|DG3 BG3 B3c d4|eg3 dg3 cg3 Bg3|Ae3 dF3 G4 G4|
eg3 agfe af3 fd3|eg3 Be3 ^c4 BA3|Ad3 fd3 ed3 fd3|eb3 a^c3 d4 D3d|
c3b ac3 Ba3 gB3|cA3 BG3 F4 ED3|GB3 Ac3 Bd3 ce3|dc3 B3A G4 G4:|
